X:453
T:
R:vals
S:Ur von Baumgartens samling, Visby.
O:Gotland, Visby
M:3/4
L:1/8
K:C
G3 ^FGe|d4 cc|(cB) (ce) (ag)|g4 f2|g3 fed|d4 cc|(AB)(cA)(ed)|c4 B2|G3 ^FGe|d4 cc|(cB)(ce)(ag)|g4 f2|g3 fed|
(dc)(Bc)(ed)|(cB)(AB)(ag)|c4 z2::d3 ^cd^d|e4^de|E3 ^GBe|d4 c2|A3 cea|a3 fdB|^G3 Bed|B4 c2|d3 ^cd^d|e4 ^de|
f4 ef|g4 ^fg|b3 afe|a3 gec|g3 fAB|c4 z2:|

